third_party/noto/noto_2/emoji_u1f507.svg

<svg enable-background="new 0 0 128 128" version="1.1" viewBox="0 0 128 128" xmlns="http://www.w3.org/2000/svg"><path d="m64 4c-33.14 0-60 26.86-60 60s26.86 60 60 60 60-26.86 60-60-26.86-60-60-60zm50 60c0.04 11.53-3.96 22.71-11.3 31.6l-70.3-70.3c8.89-7.34 20.07-11.34 31.6-11.3 27.61 0 50 22.39 50 50zm-100 0c-0.04-11.53 3.96-22.71 11.3-31.6l70.3 70.3c-8.89 7.34-20.07 11.34-31.6 11.3-27.61 0-50-22.39-50-50z" fill="#c33"/><circle cx="60.1" cy="63.1" r="56.1" fill="#F44336"/><path d="m95.6 102.7c-8.89 7.34-20.07 11.34-31.6 11.3-27.61 0-50-22.39-50-50-0.04-11.53 3.96-22.71 11.3-31.6l7.1-7.1c8.89-7.34 20.07-11.34 31.6-11.3 27.61 0 50 22.39 50 50 0.04 11.53-3.96 22.71-11.3 31.6" fill="#fff"/><path d="m95.6 102.7c-8.89 7.34-20.07 11.34-31.6 11.3-27.61 0-50-22.39-50-50-0.04-11.53 3.96-22.71 11.3-31.6l7.1-7.1c8.89-7.34 20.07-11.34 31.6-11.3 27.61 0 50 22.39 50 50 0.04 11.53-3.96 22.71-11.3 31.6" fill="#231F20"/><path d="m96.4 103.2c-20.49 16.74-50.66 13.7-67.4-6.79-14.41-17.63-14.41-42.97 0-60.61l6.8-6.8c8.53-7.03 19.25-10.85 30.3-10.8 26.45 0 47.9 21.44 47.9 47.9 0 11.04-3.82 21.75-10.8 30.3" fill="#414042"/><g opacity=".2"><path d="m75.65 22.5c2.17 0 4.2 1.44 4.2 3.82v29.42c0.19-0.03 0.39-0.06 0.59-0.06 1.96 0 3.56 1.6 3.56 3.56v9.51c0 1.96-1.6 3.56-3.56 3.56-0.2 0-0.4-0.03-0.59-0.06v29.42c0 2.39-2.04 3.83-4.21 3.83-1.26 0-2.56-0.49-3.53-1.55-13.63-15.01-22.7-20.55-22.7-20.55h-11.06c-1.53 0-2.77-1.24-2.77-2.77v-33.26c0-1.53 1.24-2.77 2.77-2.77h11.07s9-5.48 22.69-20.54c0.97-1.07 2.28-1.56 3.54-1.56" fill="#424242"/></g><path d="m82.44 71.73c1.83 0 3.32-1.49 3.32-3.32v-8.86c0-1.83-1.49-3.32-3.32-3.32s-3.32 1.49-3.32 3.32v8.86c0.02 1.83 1.51 3.32 3.32 3.32z" fill="#FAFAFA"/><path d="m57.93 82.05h-18.05c-1.43 0-2.58-1.16-2.58-2.58v-30.98c0-1.43 1.16-2.58 2.58-2.58h18.05v36.14z" fill="#FAFAFA"/><rect x="42.46" y="45.91" width="2.58" height="36.14" fill="#FAFAFA"/><path d="m71.34 26.78c-12.76 14.03-21.14 19.13-21.14 19.13v36.14s8.45 5.16 21.15 19.15c2.46 2.71 7.21 1.4 7.21-2.12v-70.2c-0.01-3.52-4.77-4.82-7.22-2.1z" fill="#FAFAFA"/><rect x="78.54" y="24.8" width="3.62" height="77.99" fill="#414042"/><path d="m51.64 44.75c0.79 1.72 1.9 6.17 10.29 16.1 0.28 0.34 1.47 1.87 0.72 2.62-0.5 0.5-1.41-0.11-2.46-1.16-4.09-4.09-7.93-9.28-10.8-15.31-1.64-3.41 1.16-4.62 2.25-2.25z" fill="#fff"/><polyline points="23.4 35.6 95 102.1 97 100.2 30.6 33.4" enable-background="new" fill="#231F20" opacity=".8"/><path d="m103.9 96.8-78.6-77.9-7.1 7.1 78.6 77.9" fill="#F44336"/><path d="m45 10.9c1.7-0.4 4.2-1.6 5.9-1.1 1.09 0.3 1.75 1.4 1.5 2.5-0.37 0.81-1.12 1.37-2 1.5-3.9 0.97-7.68 2.35-11.3 4.1-7.18 3.78-13.38 9.19-18.1 15.8-1.9 2.7-3.4 5.5-5.8 7.8-0.21 0.23-0.49 0.37-0.8 0.4-0.17 0.03-0.35-0.01-0.5-0.1-1.2-0.5-1.4-1.1-1.2-2.3 0.18-1.01 0.52-1.99 1-2.9 1.01-1.76 2.11-3.46 3.3-5.1 1.89-2.91 4.11-5.59 6.6-8 6.8-6.3 15.6-11.1 21.4-12.6z" fill="#FF8A80"/><polygon points="32.4 25.3 30.4 27.3 101.5 98.4 103.3 96.2" fill="#c33"/></svg>

<?xml version="1.0" encoding="utf-8"?>
<!-- Generator: Adobe Illustrator 25.2.3, SVG Export Plug-In . SVG Version: 6.00 Build 0)  -->
<svg version="1.1" id="Layer_1" xmlns="http://www.w3.org/2000/svg" xmlns:xlink="http://www.w3.org/1999/xlink" x="0px" y="0px"
	 viewBox="0 0 128 128" style="enable-background:new 0 0 128 128;" xml:space="preserve">
<g>
	<path style="fill:#CC3333;" d="M64,4C30.86,4,4,30.86,4,64s26.86,60,60,60s60-26.86,60-60S97.14,4,64,4z M114,64
		c0.04,11.53-3.96,22.71-11.3,31.6L32.4,25.3C41.29,17.96,52.47,13.96,64,14C91.61,14,114,36.39,114,64z M14,64
		c-0.04-11.53,3.96-22.71,11.3-31.6l70.3,70.3c-8.89,7.34-20.07,11.34-31.6,11.3C36.39,114,14,91.61,14,64z"/>
	<circle style="fill:#F44336;" cx="60.1" cy="63.1" r="56.1"/>
	<path style="fill:#FFFFFF;" d="M95.6,102.7c-8.89,7.34-20.07,11.34-31.6,11.3c-27.61,0-50-22.39-50-50
		c-0.04-11.53,3.96-22.71,11.3-31.6l7.1-7.1C41.29,17.96,52.47,13.96,64,14c27.61,0,50,22.39,50,50c0.04,11.53-3.96,22.71-11.3,31.6
		"/>
	<path style="fill:#231F20;" d="M95.6,102.7c-8.89,7.34-20.07,11.34-31.6,11.3c-27.61,0-50-22.39-50-50
		c-0.04-11.53,3.96-22.71,11.3-31.6l7.1-7.1C41.29,17.96,52.47,13.96,64,14c27.61,0,50,22.39,50,50c0.04,11.53-3.96,22.71-11.3,31.6
		"/>
	<path style="fill:#414042;" d="M96.4,103.2c-20.49,16.74-50.66,13.7-67.4-6.79C14.59,78.78,14.59,53.44,29,35.8l6.8-6.8
		c8.53-7.03,19.25-10.85,30.3-10.8c26.45,0,47.9,21.44,47.9,47.9c0,11.04-3.82,21.75-10.8,30.3"/>
	<g style="opacity:0.2;">
		<path style="fill:#424242;" d="M75.65,22.5c2.17,0,4.2,1.44,4.2,3.82v29.42c0.19-0.03,0.39-0.06,0.59-0.06
			c1.96,0,3.56,1.6,3.56,3.56v9.51c0,1.96-1.6,3.56-3.56,3.56c-0.2,0-0.4-0.03-0.59-0.06v29.42c0,2.39-2.04,3.83-4.21,3.83
			c-1.26,0-2.56-0.49-3.53-1.55C58.48,88.94,49.41,83.4,49.41,83.4H38.35c-1.53,0-2.77-1.24-2.77-2.77V47.37
			c0-1.53,1.24-2.77,2.77-2.77h11.07c0,0,9-5.48,22.69-20.54C73.08,22.99,74.39,22.5,75.65,22.5"/>
	</g>
	<g>
		<path style="fill:#FAFAFA;" d="M82.44,71.73c1.83,0,3.32-1.49,3.32-3.32v-8.86c0-1.83-1.49-3.32-3.32-3.32s-3.32,1.49-3.32,3.32
			v8.86C79.14,70.24,80.63,71.73,82.44,71.73z"/>
		<path style="fill:#FAFAFA;" d="M57.93,82.05H39.88c-1.43,0-2.58-1.16-2.58-2.58V48.49c0-1.43,1.16-2.58,2.58-2.58h18.05
			L57.93,82.05z"/>
		<rect x="42.46" y="45.91" style="fill:#FAFAFA;" width="2.58" height="36.14"/>
		<path style="fill:#FAFAFA;" d="M71.34,26.78C58.58,40.81,50.2,45.91,50.2,45.91v36.14c0,0,8.45,5.16,21.15,19.15
			c2.46,2.71,7.21,1.4,7.21-2.12v-70.2C78.55,25.36,73.79,24.06,71.34,26.78z"/>
		<rect x="78.54" y="24.8" style="fill:#414042;" width="3.62" height="77.99"/>
	</g>
	<path style="fill:#FFFFFF;" d="M51.64,44.75c0.79,1.72,1.9,6.17,10.29,16.1c0.28,0.34,1.47,1.87,0.72,2.62
		c-0.5,0.5-1.41-0.11-2.46-1.16c-4.09-4.09-7.93-9.28-10.8-15.31C47.75,43.59,50.55,42.38,51.64,44.75z"/>
	<polyline style="opacity:0.8;fill:#231F20;enable-background:new    ;" points="23.4,35.6 95,102.1 97,100.2 30.6,33.4 	"/>
	<path style="fill:#F44336;" d="M103.9,96.8L25.3,18.9L18.2,26l78.6,77.9"/>
	<path style="fill:#FF8A80;" d="M45,10.9c1.7-0.4,4.2-1.6,5.9-1.1c1.09,0.3,1.75,1.4,1.5,2.5c-0.37,0.81-1.12,1.37-2,1.5
		c-3.9,0.97-7.68,2.35-11.3,4.1c-7.18,3.78-13.38,9.19-18.1,15.8c-1.9,2.7-3.4,5.5-5.8,7.8c-0.21,0.23-0.49,0.37-0.8,0.4
		c-0.17,0.03-0.35-0.01-0.5-0.1c-1.2-0.5-1.4-1.1-1.2-2.3c0.18-1.01,0.52-1.99,1-2.9c1.01-1.76,2.11-3.46,3.3-5.1
		c1.89-2.91,4.11-5.59,6.6-8C30.4,17.2,39.2,12.4,45,10.9z"/>
	<polygon style="fill:#CC3333;" points="32.4,25.3 30.4,27.3 101.5,98.4 103.3,96.2 	"/>
</g>
</svg>
